images/ico_question.svg

<svg width="34" height="34" viewBox="0 0 34 34" fill="none" xmlns="http://www.w3.org/2000/svg">
<path d="M17 0C7.62316 0 0 7.62316 0 17C0 26.3768 7.62316 34 17 34C26.3768 34 34 26.3768 34 17C34 7.62316 26.3768 0 17 0ZM17 27.3074C15.9979 27.3074 15.1747 26.4842 15.1747 25.4821C15.1747 24.48 15.9979 23.6568 17 23.6568C18.0021 23.6568 18.8253 24.48 18.8253 25.4821C18.8253 26.4842 18.0379 27.3074 17 27.3074ZM18.7895 17.9305C18.6105 18.0021 18.4674 18.2168 18.4674 18.4674V20.2926C18.4674 21.08 17.8232 21.7242 17.0358 21.7242C16.2484 21.7242 15.6042 21.08 15.6042 20.2926V18.4674C15.6042 16.9642 16.5347 15.64 17.9305 15.1747C19.1116 14.7811 20.1495 13.5642 19.8632 11.9179C19.6484 10.7726 18.7179 9.84211 17.5726 9.62737C16.7137 9.48421 15.8547 9.69895 15.2105 10.2358C14.4947 10.8084 14.1368 11.6316 14.1368 12.4547C14.1368 13.2421 13.4926 13.8863 12.7053 13.8863C11.9179 13.8863 11.2737 13.2421 11.2737 12.4547C11.2737 10.7368 12.0253 9.12632 13.3137 8.05263C14.6021 6.94316 16.32 6.47789 18.0379 6.8C20.3642 7.19368 22.2611 9.12632 22.6547 11.4168C23.1558 14.3158 21.5453 17.0358 18.7895 17.9305Z" fill="url(#paint0_linear)"/>
<defs>
<linearGradient id="paint0_linear" x1="24.4544" y1="2.36247" x2="17.0001" y2="36.3625" gradientUnits="userSpaceOnUse">
<stop stop-color="#50D3FB"/>
<stop offset="1" stop-color="#528EE7"/>
</linearGradient>
</defs>
</svg>

<svg width="34" height="34" fill="none" xmlns="http://www.w3.org/2000/svg"><path d="M17 0C7.623 0 0 7.623 0 17c0 9.377 7.623 17 17 17 9.377 0 17-7.623 17-17 0-9.377-7.623-17-17-17zm0 27.307a1.833 1.833 0 01-1.825-1.825c0-1.002.823-1.825 1.825-1.825s1.825.823 1.825 1.825A1.81 1.81 0 0117 27.307zm1.79-9.377c-.18.072-.323.287-.323.537v1.826c0 .787-.644 1.431-1.431 1.431a1.436 1.436 0 01-1.432-1.431v-1.826c0-1.503.93-2.827 2.326-3.292 1.182-.394 2.22-1.61 1.933-3.257a2.905 2.905 0 00-2.29-2.29c-.86-.144-1.718.07-2.363.608a2.828 2.828 0 00-1.073 2.219c0 .787-.644 1.431-1.432 1.431a1.436 1.436 0 01-1.431-1.431 5.72 5.72 0 012.04-4.402A5.61 5.61 0 0118.038 6.8c2.326.394 4.223 2.326 4.617 4.617.5 2.899-1.11 5.619-3.866 6.513z" fill="url(#paint0_linear)"/><defs><linearGradient id="paint0_linear" x1="24.454" y1="2.362" x2="17" y2="36.362" gradientUnits="userSpaceOnUse"><stop stop-color="#50D3FB"/><stop offset="1" stop-color="#528EE7"/></linearGradient></defs></svg>
